**harmony	**harte	**kern	**silbe	**rhyme	**timestamp	**phrase
*M4/4	*M4/4	*ICvox	*	*	*	*
*	*	*VRlead	*	*	*	*
*	*	*Hstimme	*	*	*	*
*D:	*D:	*D:	*	*	*	*
*	*	*M4/4	*	*	*	*
*	*	*clefG2	*	*	*	*
1r;	1r	r;	.	.	0	.
=1	=1	=1	=1	=1	=1	=1
*>Letter>A	*>Letter>A	*>Letter>A	*>Letter>A	*>Letter>A	*>Letter>A	*>Letter>A
*>Label>Intro	*>Label>Intro	*>Label>Intro	*>Label>Intro	*>Label>Intro	*>Label>Intro	*>Label>Intro
1AM	A:maj	1r	.	.	0.325	newline
=2	=2	=2	=2	=2	=2	=2
1GM	G:maj/2	1r	.	.	2.33	.
=3	=3	=3	=3	=3	=3	=3
1GM	G:maj/2	1r	.	.	4.336	.
=4	=4	=4	=4	=4	=4	=4
1AM	A:maj	1r	.	.	6.341	.
=5	=5	=5	=5	=5	=5	=5
1AM	A:maj	1r	.	.	8.346	newline
=6	=6	=6	=6	=6	=6	=6
1GM	G:maj/2	1r	.	.	10.317	.
=7	=7	=7	=7	=7	=7	=7
1GM	G:maj/2	1r	.	.	12.287	.
=8	=8	=8	=8	=8	=8	=8
1AM	A:maj	2r	.	.	14.258	.
.	.	4r	.	.	.	.
.	.	8r	.	.	.	.
.	.	8d	The	.	.	.
=9	=9	=9	=9	=9	=9	=9
*>Letter>B	*>Letter>B	*>Letter>B	*>Letter>B	*>Letter>B	*>Letter>B	*>Letter>B
*>Label>Verse	*>Label>Verse	*>Label>Verse	*>Label>Verse	*>Label>Verse	*>Label>Verse	*>Label>Verse
1DM	D:maj	4f#	rain	.	16.229	newline
.	.	8e	is	.	.	.
.	.	[8d	fa-	.	.	.
.	.	8d]	_	.	.	.
.	.	16e	-lling	.	.	.
.	.	16f#	_	.	.	.
.	.	8r	.	.	.	.
.	.	[8e	through	.	.	.
=10	=10	=10	=10	=10	=10	=10
1Am	A:min	8e]	_	.	18.186	.
.	.	4d	the	.	.	.
.	.	4c	mist	A	.	.
.	.	4c	of	.	.	.
.	.	[8c	sor-	.	.	.
=11	=11	=11	=11	=11	=11	=11
2CM	C:maj	8c]	_	.	20.143	.
.	.	8c	-row	.	.	.
.	.	4r	.	.	.	.
2GM	G:maj	4c	that	.	21.122	.
.	.	8B	sur-	.	.	.
.	.	[8d	-round-	(B	.	.
=12	=12	=12	=12	=12	=12	=12
1DM	D:maj	8d]	_	.	22.1	.
.	.	4d	-ed	.	.	.
.	.	8d	me	C)	.	.
.	.	4.r	.	.	.	.
.	.	8d	The	.	.	.
=13	=13	=13	=13	=13	=13	=13
1DM	D:maj	4f#	sun	.	24.057	newline
.	.	8e	could	.	.	.
.	.	[8d	ne-	.	.	.
.	.	8d]	_	.	.	.
.	.	16e	-ver	.	.	.
.	.	16f#	_	.	.	.
.	.	8r	.	.	.	.
.	.	[8e	thaw	.	.	.
=14	=14	=14	=14	=14	=14	=14
1Am	A:min	8e]	_	.	26.025	.
.	.	4d	a-	.	.	.
.	.	4c	-way	.	.	.
.	.	8r	.	.	.	.
.	.	8A	the	.	.	.
.	.	[8c	bliss	A	.	.
=15	=15	=15	=15	=15	=15	=15
2CM	C:maj	8c]	_	.	27.993	.
.	.	4c	that	.	.	.
.	.	16c	lays	.	.	.
.	.	[16d	_	.	.	.
2GM	G:maj	4d]	_	.	28.977	.
.	.	8d	a-	.	.	.
.	.	8e	-round	(B	.	.
=16	=16	=16	=16	=16	=16	=16
1DM	D:maj	4d	_	.	29.961	.
.	.	8d	me	C)	.	.
.	.	8r	.	.	.	.
.	.	8r	.	.	.	.
.	.	8d	Let	.	.	.
.	.	8e	it	.	.	.
.	.	[8f#	rain	.	.	.
=17	=17	=17	=17	=17	=17	=17
*>Letter>C	*>Letter>C	*>Letter>C	*>Letter>C	*>Letter>C	*>Letter>C	*>Letter>C
*>Label>Chorus	*>Label>Chorus	*>Label>Chorus	*>Label>Chorus	*>Label>Chorus	*>Label>Chorus	*>Label>Chorus
2DM	D:maj	8f#]	_	.	31.929	newline
.	.	8r	.	.	.	.
.	.	4r	.	.	.	.
2Am	A:min	8r	.	.	32.903	.
.	.	8d	Let	.	.	.
.	.	8e	it	.	.	.
.	.	16f#	rain	.	.	.
.	.	16e	_	.	.	.
=18	=18	=18	=18	=18	=18	=18
2DM	D:maj	8d	_	.	33.877	.
.	.	8r	.	.	.	.
.	.	4r	.	.	.	.
2Am	A:min	8r	.	.	34.85	.
.	.	8d	Let	.	.	.
.	.	8d	your	.	.	.
.	.	[8e	love	.	.	.
=19	=19	=19	=19	=19	=19	=19
2CM	C:maj	4e]	_	.	35.824	.
.	.	4e	rain	.	.	.
2GM	G:maj	4d	down	.	36.798	.
.	.	8B	on	.	.	.
.	.	[8A	me	.	.	.
=20	=20	=20	=20	=20	=20	=20
1DM	D:maj	8A]	_	.	37.771	.
.	.	8r	.	.	.	.
.	.	4r	.	.	.	.
.	.	8r	.	.	.	.
.	.	8d	Let	.	.	.
.	.	8e	it	.	.	.
.	.	[8f#	rain	.	.	.
=21	=21	=21	=21	=21	=21	=21
2DM	D:maj	8f#]	_	.	39.719	newline
.	.	8r	.	.	.	.
.	.	4r	.	.	.	.
2Am	A:min	8r	.	.	40.696	.
.	.	8d	Let	.	.	.
.	.	8e	it	.	.	.
.	.	16f#	rain	.	.	.
.	.	16e	_	.	.	.
=22	=22	=22	=22	=22	=22	=22
2DM	D:maj	4d	_	.	41.674	.
.	.	4r	.	.	.	.
2Am	A:min	8r	.	.	42.651	.
.	.	8d	Let	.	.	.
.	.	8d	it	.	.	.
.	.	[8e	rain	.	.	.
=23	=23	=23	=23	=23	=23	=23
2CM	C:maj	4.e]	_	.	43.629	.
.	.	8d	_	.	.	.
2GM	G:maj	4.d	rain	.	44.606	.
.	.	[8d	rain	.	.	.
=24	=24	=24	=24	=24	=24	=24
1DM	D:maj	8d]	_	.	45.584	.
.	.	8r	.	.	.	.
.	.	4r	.	.	.	.
.	.	4.r	.	.	.	.
.	.	8d	Her	.	.	.
=25	=25	=25	=25	=25	=25	=25
*>Letter>B	*>Letter>B	*>Letter>B	*>Letter>B	*>Letter>B	*>Letter>B	*>Letter>B
*>Label>Verse	*>Label>Verse	*>Label>Verse	*>Label>Verse	*>Label>Verse	*>Label>Verse	*>Label>Verse
1DM	D:maj	4f#	life	.	47.539	newline
.	.	8e	was	.	.	.
.	.	[8d	like	.	.	.
.	.	8d]	_	.	.	.
.	.	16e	a	.	.	.
.	.	16f#	_	.	.	.
.	.	8r	.	.	.	.
.	.	[8e	de-	.	.	.
=26	=26	=26	=26	=26	=26	=26
1Am	A:min	8e]	_	.	49.504	.
.	.	4d	-sert	.	.	.
.	.	4c	flo-	.	.	.
.	.	4A	-wer	.	.	.
.	.	8r	.	.	.	.
=27	=27	=27	=27	=27	=27	=27
2CM	C:maj	4c	burn-	.	51.469	.
.	.	8c	-ing	.	.	.
.	.	[8d	in	.	.	.
2GM	G:maj	8d]	_	.	52.452	.
.	.	4d	the	.	.	.
.	.	[8d	sun	D	.	.
=28	=28	=28	=28	=28	=28	=28
1DM	D:maj	8d]	_	.	53.435	.
.	.	8r	.	.	.	.
.	.	4r	.	.	.	.
.	.	4r	.	.	.	.
.	.	8r	.	.	.	.
.	.	8d	Un-	.	.	.
=29	=29	=29	=29	=29	=29	=29
1DM	D:maj	8f#	-til	.	55.4	newline
.	.	4e	I	.	.	.
.	.	[8d	found	.	.	.
.	.	8d]	_	.	.	.
.	.	16e	the	.	.	.
.	.	[16f#	_	.	.	.
.	.	8f#]	_	.	.	.
.	.	[8e	way	.	.	.
=30	=30	=30	=30	=30	=30	=30
1Am	A:min	8e]	_	.	57.35	.
.	.	4d	to	.	.	.
.	.	4c	love	.	.	.
.	.	8r	.	.	.	.
.	.	8r	.	.	.	.
.	.	8A	it's	.	.	.
=31	=31	=31	=31	=31	=31	=31
2CM	C:maj	4c	har-	.	59.3	.
.	.	8c	-der	.	.	.
.	.	[8d	said	.	.	.
2GM	G:maj	8d]	_	.	60.274	.
.	.	16d	than	.	.	.
.	.	[16e	_	.	.	.
.	.	8e]	_	.	.	.
.	.	[8d	done	D	.	.
=32	=32	=32	=32	=32	=32	=32
1DM	D:maj	8d]	_	.	61.249	.
.	.	8r	.	.	.	.
.	.	4r	.	.	.	.
.	.	8r	.	.	.	.
.	.	8d	Let	.	.	.
.	.	8e	it	.	.	.
.	.	[8f#	rain	.	.	.
=33	=33	=33	=33	=33	=33	=33
*>Letter>C	*>Letter>C	*>Letter>C	*>Letter>C	*>Letter>C	*>Letter>C	*>Letter>C
*>Label>Chorus	*>Label>Chorus	*>Label>Chorus	*>Label>Chorus	*>Label>Chorus	*>Label>Chorus	*>Label>Chorus
2DM	D:maj	8f#]	_	.	63.199	newline
.	.	8r	.	.	.	.
.	.	4r	.	.	.	.
2Am	A:min	8r	.	.	64.173	.
.	.	8d	Let	.	.	.
.	.	8e	it	.	.	.
.	.	16f#	rain	.	.	.
.	.	16e	_	.	.	.
=34	=34	=34	=34	=34	=34	=34
2DM	D:maj	4.d	_	.	65.146	.
.	.	8r	.	.	.	.
2Am	A:min	8r	.	.	66.12	.
.	.	8d	Let	.	.	.
.	.	8d	your	.	.	.
.	.	[8e	love	.	.	.
=35	=35	=35	=35	=35	=35	=35
2CM	C:maj	4e]	_	.	67.093	.
.	.	4e	rain	.	.	.
2GM	G:maj	4d	down	.	68.067	.
.	.	8B	on	.	.	.
.	.	[8A	me	.	.	.
=36	=36	=36	=36	=36	=36	=36
1DM	D:maj	8A]	_	.	69.04	.
.	.	8r	.	.	.	.
.	.	4r	.	.	.	.
.	.	8r	.	.	.	.
.	.	8d	Let	.	.	.
.	.	8e	it	.	.	.
.	.	[8f#	rain	.	.	.
=37	=37	=37	=37	=37	=37	=37
2DM	D:maj	8f#]	_	.	70.987	newline
.	.	8r	.	.	.	.
.	.	4r	.	.	.	.
2Am	A:min	8r	.	.	71.989	.
.	.	8d	Let	.	.	.
.	.	8e	it	.	.	.
.	.	16f#	rain	.	.	.
.	.	16e	_	.	.	.
=38	=38	=38	=38	=38	=38	=38
2DM	D:maj	4d	_	.	72.992	.
.	.	4r	.	.	.	.
2Am	A:min	8r	.	.	73.994	.
.	.	8d	Let	.	.	.
.	.	8d	it	.	.	.
.	.	[8e	rain	.	.	.
=39	=39	=39	=39	=39	=39	=39
2CM	C:maj	2e]	_	.	74.996	.
2GM	G:maj	2d	rain	.	75.998	.
=40	=40	=40	=40	=40	=40	=40
*>Letter>A	*>Letter>A	*>Letter>A	*>Letter>A	*>Letter>A	*>Letter>A	*>Letter>A
*>Label>Interlude	*>Label>Interlude	*>Label>Interlude	*>Label>Interlude	*>Label>Interlude	*>Label>Interlude	*>Label>Interlude
1AM	A:maj	2c#	rain	.	77.001	newline
.	.	2r	.	.	.	.
=41	=41	=41	=41	=41	=41	=41
1GM	G:maj/2	1r	.	.	79.015	.
=42	=42	=42	=42	=42	=42	=42
1GM	G:maj/2	1r	.	.	81.029	.
=43	=43	=43	=43	=43	=43	=43
1AM	A:maj	1r	.	.	83.044	.
=44	=44	=44	=44	=44	=44	=44
1AM	A:maj	1r	.	.	85.058	newline
=45	=45	=45	=45	=45	=45	=45
1GM	G:maj/2	1r	.	.	87.061	.
=46	=46	=46	=46	=46	=46	=46
1GM	G:maj/2	1r	.	.	89.064	.
=47	=47	=47	=47	=47	=47	=47
1AM	A:maj	1r	.	.	91.066	.
=48	=48	=48	=48	=48	=48	=48
*>Letter>D	*>Letter>D	*>Letter>D	*>Letter>D	*>Letter>D	*>Letter>D	*>Letter>D
*>Label>Solo	*>Label>Solo	*>Label>Solo	*>Label>Solo	*>Label>Solo	*>Label>Solo	*>Label>Solo
1F#m	F#:min	1r	.	.	93.069	newline
=49	=49	=49	=49	=49	=49	=49
1F#m	F#:min/b1	1r	.	.	95.053	.
=50	=50	=50	=50	=50	=50	=50
1F#m	F#:min/b7	1r	.	.	97.037	.
=51	=51	=51	=51	=51	=51	=51
2F#M	F#:maj6/6	1r	.	.	99.02	.
2Bmm	B:sus2(b7)	.	.	.	100.012	.
=52	=52	=52	=52	=52	=52	=52
1Em	E:min	1r	.	.	101.004	newline
=53	=53	=53	=53	=53	=53	=53
1AM	A:maj	1r	.	.	102.98	.
=54	=54	=54	=54	=54	=54	=54
1Em	E:min	1r	.	.	104.955	.
=55	=55	=55	=55	=55	=55	=55
1AM	A:maj	1r	.	.	106.931	.
=56	=56	=56	=56	=56	=56	=56
1Em	E:min	1r	.	.	108.906	.
=57	=57	=57	=57	=57	=57	=57
1AM	A:maj	1r	.	.	110.882	.
=58	=58	=58	=58	=58	=58	=58
*>Letter>B	*>Letter>B	*>Letter>B	*>Letter>B	*>Letter>B	*>Letter>B	*>Letter>B
*>Label>Verse	*>Label>Verse	*>Label>Verse	*>Label>Verse	*>Label>Verse	*>Label>Verse	*>Label>Verse
1DM	D:maj	8f#	Now	.	112.858	newline
.	.	4e	I	.	.	.
.	.	[8d	know	.	.	.
.	.	8d]	_	.	.	.
.	.	16e	the	.	.	.
.	.	[16f#	_	.	.	.
.	.	8f#]	_	.	.	.
.	.	[8e	se-	.	.	.
=59	=59	=59	=59	=59	=59	=59
1Am	A:min	8e]	_	.	114.825	.
.	.	4d	-cret	.	.	.
.	.	4c	there	.	.	.
.	.	4A	is	.	.	.
.	.	[8c	no-	.	.	.
=60	=60	=60	=60	=60	=60	=60
2CM	C:maj	8c]	_	.	116.793	.
.	.	4c	-thing	.	.	.
.	.	[8d	that	.	.	.
2GM	G:maj	8d]	_	.	117.777	.
.	.	4e	I	.	.	.
.	.	[8d	lack	E	.	.
=61	=61	=61	=61	=61	=61	=61
1DM	D:maj	8d]	_	.	118.761	.
.	.	8r	.	.	.	.
.	.	4r	.	.	.	.
.	.	2r	.	.	.	.
=62	=62	=62	=62	=62	=62	=62
1DM	D:maj	8f#	If	.	120.729	newline
.	.	4e	I	.	.	.
.	.	[8d	give	.	.	.
.	.	8d]	_	.	.	.
.	.	16e	my	.	.	.
.	.	[16f#	_	.	.	.
.	.	8f#]	_	.	.	.
.	.	[8e	love	.	.	.
=63	=63	=63	=63	=63	=63	=63
1Am	A:min	8e]	_	.	122.716	.
.	.	4d	to	.	.	.
.	.	4c	you	.	.	.
.	.	8r	.	.	.	.
.	.	8r	.	.	.	.
.	.	8A	you'll	.	.	.
=64	=64	=64	=64	=64	=64	=64
2CM	C:maj	4c	sure-	.	124.703	.
.	.	8c	-ly	.	.	.
.	.	[8d	give	.	.	.
2GM	G:maj	8d]	_	.	125.696	.
.	.	16d	it	.	.	.
.	.	[16e	_	.	.	.
.	.	8e]	_	.	.	.
.	.	[8d	back	E	.	.
=65	=65	=65	=65	=65	=65	=65
1DM	D:maj	8d]	_	.	126.69	.
.	.	8r	.	.	.	.
.	.	4r	.	.	.	.
.	.	8r	.	.	.	.
.	.	8d	Let	.	.	.
.	.	8e	it	.	.	.
.	.	[8f#	rain	.	.	.
=66	=66	=66	=66	=66	=66	=66
*>Letter>C	*>Letter>C	*>Letter>C	*>Letter>C	*>Letter>C	*>Letter>C	*>Letter>C
*>Label>Chorus	*>Label>Chorus	*>Label>Chorus	*>Label>Chorus	*>Label>Chorus	*>Label>Chorus	*>Label>Chorus
2DM	D:maj	8f#]	_	.	128.677	newline
.	.	8r	.	.	.	.
.	.	4r	.	.	.	.
2Am	A:min	8r	.	.	129.653	.
.	.	8d	Let	.	.	.
.	.	8e	it	.	.	.
.	.	16f#	rain	.	.	.
.	.	16e	_	.	.	.
=67	=67	=67	=67	=67	=67	=67
2DM	D:maj	4d	_	.	130.63	.
.	.	4r	.	.	.	.
2Am	A:min	8r	.	.	131.606	.
.	.	8d	Let	.	.	.
.	.	8d	your	.	.	.
.	.	[8e	love	.	.	.
=68	=68	=68	=68	=68	=68	=68
2CM	C:maj	4e]	_	.	132.582	.
.	.	16e	rain	.	.	.
.	.	16f#	_	.	.	.
.	.	8e	_	.	.	.
2GM	G:maj	4d	down	.	133.558	.
.	.	8B	on	.	.	.
.	.	[8A	me	.	.	.
=69	=69	=69	=69	=69	=69	=69
1DM	D:maj	8A]	_	.	134.534	.
.	.	8r	.	.	.	.
.	.	4r	.	.	.	.
.	.	8r	.	.	.	.
.	.	8d	Let	.	.	.
.	.	8e	it	.	.	.
.	.	[8f#	rain	.	.	.
=70	=70	=70	=70	=70	=70	=70
2DM	D:maj	8f#]	_	.	136.487	newline
.	.	8r	.	.	.	.
.	.	4r	.	.	.	.
2Am	A:min	8r	.	.	137.462	.
.	.	8d	Let	.	.	.
.	.	8e	it	.	.	.
.	.	16f#	rain	.	.	.
.	.	16e	_	.	.	.
=71	=71	=71	=71	=71	=71	=71
2DM	D:maj	4d	_	.	138.437	.
.	.	4r	.	.	.	.
2Am	A:min	8r	.	.	139.412	.
.	.	8d	Let	.	.	.
.	.	8d	it	.	.	.
.	.	[8e	rain	.	.	.
=72	=72	=72	=72	=72	=72	=72
2CM	C:maj	4.e]	_	.	140.387	.
.	.	8d	_	.	.	.
2GM	G:maj	4.d	rain	.	141.362	.
.	.	[8d	rain	.	.	.
=73	=73	=73	=73	=73	=73	=73
1DM	D:maj	8d]	_	.	142.337	.
.	.	4.r	.	.	.	.
.	.	8r	.	.	.	.
.	.	8d	Let	.	.	.
.	.	8e	it	.	.	.
.	.	[8f#	rain	.	.	.
=74	=74	=74	=74	=74	=74	=74
*>Letter>C	*>Letter>C	*>Letter>C	*>Letter>C	*>Letter>C	*>Letter>C	*>Letter>C
*>Label>Chorus	*>Label>Chorus	*>Label>Chorus	*>Label>Chorus	*>Label>Chorus	*>Label>Chorus	*>Label>Chorus
2DM	D:maj	8f#]	_	.	144.286	newline
.	.	8r	.	.	.	.
.	.	4r	.	.	.	.
2Am	A:min	8r	.	.	145.259	.
.	.	8d	Let	.	.	.
.	.	8e	it	.	.	.
.	.	16f#	rain	.	.	.
.	.	16e	_	.	.	.
=75	=75	=75	=75	=75	=75	=75
2DM	D:maj	4d	_	.	146.232	.
.	.	4r	.	.	.	.
2Am	A:min	8r	.	.	147.206	.
.	.	8d	Let	.	.	.
.	.	8d	your	.	.	.
.	.	[8e	love	.	.	.
=76	=76	=76	=76	=76	=76	=76
2CM	C:maj	4e]	_	.	148.179	.
.	.	16e	rain	.	.	.
.	.	16f#	_	.	.	.
.	.	8e	_	.	.	.
2GM	G:maj	4d	down	.	149.152	.
.	.	8B	on	.	.	.
.	.	[8A	me	.	.	.
=77	=77	=77	=77	=77	=77	=77
1DM	D:maj	8A]	_	.	150.125	.
.	.	8r	.	.	.	.
.	.	4r	.	.	.	.
.	.	8r	.	.	.	.
.	.	8d	Let	.	.	.
.	.	8e	it	.	.	.
.	.	[8f#	rain	.	.	.
=78	=78	=78	=78	=78	=78	=78
2DM	D:maj	8f#]	_	.	152.071	newline
.	.	8r	.	.	.	.
.	.	4r	.	.	.	.
2Am	A:min	8r	.	.	153.06	.
.	.	8d	Let	.	.	.
.	.	8e	it	.	.	.
.	.	16f#	rain	.	.	.
.	.	16e	_	.	.	.
=79	=79	=79	=79	=79	=79	=79
2DM	D:maj	4d	_	.	154.049	.
.	.	4r	.	.	.	.
2Am	A:min	8r	.	.	155.038	.
.	.	8d	Let	.	.	.
.	.	8d	it	.	.	.
.	.	[8e	rain	.	.	.
=80	=80	=80	=80	=80	=80	=80
2CM	C:maj	2e]	_	.	156.028	.
2GM	G:maj	2d	rain	.	157.017	.
=81	=81	=81	=81	=81	=81	=81
*>Letter>A	*>Letter>A	*>Letter>A	*>Letter>A	*>Letter>A	*>Letter>A	*>Letter>A
*>Label>Interlude	*>Label>Interlude	*>Label>Interlude	*>Label>Interlude	*>Label>Interlude	*>Label>Interlude	*>Label>Interlude
1AM	A:maj	1c#	rain	.	158.006	newline
=82	=82	=82	=82	=82	=82	=82
1GM	G:maj/2	1r	.	.	160.025	.
=83	=83	=83	=83	=83	=83	=83
1GM	G:maj/2	1r	.	.	162.044	.
=84	=84	=84	=84	=84	=84	=84
1AM	A:maj	1r	.	.	164.062	.
=85	=85	=85	=85	=85	=85	=85
1AM	A:maj	1r	.	.	166.081	newline
=86	=86	=86	=86	=86	=86	=86
1GM	G:maj	1r	.	.	168.05	.
=87	=87	=87	=87	=87	=87	=87
1GM	G:maj/3	1r	.	.	170.02	.
=88	=88	=88	=88	=88	=88	=88
1AM	A:maj	1r	.	.	171.989	.
=89	=89	=89	=89	=89	=89	=89
*>Letter>A2	*>Letter>A2	*>Letter>A2	*>Letter>A2	*>Letter>A2	*>Letter>A2	*>Letter>A2
*>Label>Outro	*>Label>Outro	*>Label>Outro	*>Label>Outro	*>Label>Outro	*>Label>Outro	*>Label>Outro
1AM	A:maj	1r	.	.	173.958	newline
=90	=90	=90	=90	=90	=90	=90
1GM	G:maj	1r	.	.	175.89	.
=91	=91	=91	=91	=91	=91	=91
1GM	G:maj	1r	.	.	177.822	.
=92	=92	=92	=92	=92	=92	=92
1AM	A:maj	1r	.	.	179.754	.
=93	=93	=93	=93	=93	=93	=93
1AM	A:maj	2..e	Hey	.	181.686	newline
.	.	8d	_	.	.	.
=94	=94	=94	=94	=94	=94	=94
1GM	G:maj	1r	.	.	183.604	.
=95	=95	=95	=95	=95	=95	=95
1GM	G:maj	[2f#	Hey	.	185.522	.
.	.	8f#]	_	.	.	.
.	.	8g	_	.	.	.
.	.	8f#	_	.	.	.
.	.	8e	_	.	.	.
=96	=96	=96	=96	=96	=96	=96
1AM	A:maj	1r	.	.	187.44	.
=97	=97	=97	=97	=97	=97	=97
1AM	A:maj	2..e	Hey	.	189.359	newline
.	.	[8d	_	.	.	.
=98	=98	=98	=98	=98	=98	=98
1GM	G:maj	8d]	_	.	191.273	.
.	.	8r	.	.	.	.
.	.	4r	.	.	.	.
.	.	2r	.	.	.	.
=99	=99	=99	=99	=99	=99	=99
1GM	G:maj	[2f#	Hey	.	193.187	.
.	.	8f#]	_	.	.	.
.	.	8g	_	.	.	.
.	.	8f#	_	.	.	.
.	.	[8e	_	.	.	.
=100	=100	=100	=100	=100	=100	=100
1AM	A:maj	4e]	_	.	195.101	.
.	.	4r	.	.	.	.
.	.	2r	.	.	.	.
=101	=101	=101	=101	=101	=101	=101
1AM	A:maj	2..e	Hey	.	197.015	newline
.	.	[8d	_	.	.	.
=102	=102	=102	=102	=102	=102	=102
1GM	G:maj	8d]	_	.	198.939	.
.	.	8r	.	.	.	.
.	.	4r	.	.	.	.
.	.	2r	.	.	.	.
=103	=103	=103	=103	=103	=103	=103
1GM	G:maj	[2f#	Hey	.	200.863	.
.	.	8f#]	_	.	.	.
.	.	8g	_	.	.	.
.	.	8f#	_	.	.	.
.	.	[8e	_	.	.	.
=104	=104	=104	=104	=104	=104	=104
1AM	A:maj	8e]	_	.	202.787	.
.	.	8r	.	.	.	.
.	.	4r	.	.	.	.
.	.	2r	.	.	.	.
=105	=105	=105	=105	=105	=105	=105
1AM	A:maj	2..e	Hey	.	204.711	newline
.	.	8d	_	.	.	.
=106	=106	=106	=106	=106	=106	=106
1GM	G:maj	1r	.	.	206.643	.
=107	=107	=107	=107	=107	=107	=107
1GM	G:maj	[2f#	Hey	.	208.576	.
.	.	8f#]	_	.	.	.
.	.	8g	_	.	.	.
.	.	8f#	_	.	.	.
.	.	[8e	_	.	.	.
=108	=108	=108	=108	=108	=108	=108
1AM	A:maj	8e]	_	.	210.508	.
.	.	8r	.	.	.	.
.	.	4r	.	.	.	.
.	.	2r	.	.	.	.
=109	=109	=109	=109	=109	=109	=109
1AM	A:maj	1r	.	.	212.441	newline
=110	=110	=110	=110	=110	=110	=110
1GM	G:maj	1r	.	.	214.357	.
=111	=111	=111	=111	=111	=111	=111
1GM	G:maj	1r	.	.	216.274	.
=112	=112	=112	=112	=112	=112	=112
1AM	A:maj	1r	.	.	218.19	.
=113	=113	=113	=113	=113	=113	=113
1AM	A:maj	1r	.	.	220.106	newline
=114	=114	=114	=114	=114	=114	=114
1GM	G:maj	1r	.	.	222.016	.
=115	=115	=115	=115	=115	=115	=115
1GM	G:maj	1r	.	.	223.926	.
=116	=116	=116	=116	=116	=116	=116
1AM	A:maj	1r	.	.	225.836	.
=117	=117	=117	=117	=117	=117	=117
1AM	A:maj	1r	.	.	227.745	newline
=118	=118	=118	=118	=118	=118	=118
1GM	G:maj	1r	.	.	229.632	.
=119	=119	=119	=119	=119	=119	=119
1GM	G:maj	1r	.	.	231.518	.
=120	=120	=120	=120	=120	=120	=120
1AM	A:maj	1r	.	.	233.404	.
=121	=121	=121	=121	=121	=121	=121
1AM	A:maj	1r	.	.	235.29	newline
=122	=122	=122	=122	=122	=122	=122
1GM	G:maj	1r	.	.	237.193	.
=123	=123	=123	=123	=123	=123	=123
1GM	G:maj	1r	.	.	239.095	.
=124	=124	=124	=124	=124	=124	=124
1AM	A:maj	1r	.	.	240.997	.
=125	=125	=125	=125	=125	=125	=125
1AM	A:maj	1r	.	.	242.899	newline
=126	=126	=126	=126	=126	=126	=126
1GM	G:maj	1r	.	.	244.809	.
=127	=127	=127	=127	=127	=127	=127
1GM	G:maj	1r	.	.	246.719	.
=128	=128	=128	=128	=128	=128	=128
1AM	A:maj	1r	.	.	248.628	.
=129	=129	=129	=129	=129	=129	=129
1AM	A:maj	1r	.	.	250.538	newline
=130	=130	=130	=130	=130	=130	=130
1GM	G:maj	1r	.	.	252.419	.
=131	=131	=131	=131	=131	=131	=131
1GM	G:maj	1r	.	.	254.301	.
=132	=132	=132	=132	=132	=132	=132
1AM	A:maj	1r	.	.	256.182	.
=133	=133	=133	=133	=133	=133	=133
1AM	A:maj	1r	.	.	258.063	newline
=134	=134	=134	=134	=134	=134	=134
1GM	G:maj	1r	.	.	259.942	.
=135	=135	=135	=135	=135	=135	=135
1GM	G:maj	1r	.	.	261.82	.
=136	=136	=136	=136	=136	=136	=136
1AM	A:maj	1r	.	.	263.699	.
=137	=137	=137	=137	=137	=137	=137
1AM	A:maj	1r	.	.	265.577	newline
=138	=138	=138	=138	=138	=138	=138
1GM	G:maj	1r	.	.	267.452	.
=139	=139	=139	=139	=139	=139	=139
1GM	G:maj	1r	.	.	269.327	.
=140	=140	=140	=140	=140	=140	=140
1AM	A:maj	1r	.	.	271.202	.
=141	=141	=141	=141	=141	=141	=141
1AM	A:maj	1r	.	.	273.078	newline
=142	=142	=142	=142	=142	=142	=142
1GM	G:maj	1r	.	.	274.973	.
=143	=143	=143	=143	=143	=143	=143
1GM	G:maj	1r	.	.	276.868	.
=144	=144	=144	=144	=144	=144	=144
1AM	A:maj	1r	.	.	278.763	.
=145	=145	=145	=145	=145	=145	=145
1AM	A:maj	1r	.	.	280.658	newline
=146	=146	=146	=146	=146	=146	=146
1GM	G:maj	1r	.	.	282.551	.
=147	=147	=147	=147	=147	=147	=147
1GM	G:maj	1r	.	.	284.445	.
=148	=148	=148	=148	=148	=148	=148
1AM	A:maj	1r	.	.	286.338	.
=149	=149	=149	=149	=149	=149	=149
1AM	A:maj	1r	.	.	288.232	newline
=150	=150	=150	=150	=150	=150	=150
1GM	G:maj	1r	.	.	290.332	.
=151	=151	=151	=151	=151	=151	=151
1GM	G:maj	1r	.	.	292.433	.
=152	=152	=152	=152	=152	=152	=152
1AM	A:maj	1r	.	.	294.534	.
=153	=153	=153	=153	=153	=153	=153
1AM	A:maj	1r	.	.	296.635	newline
1r;	1r	r;	.	.	300.304	.
1r;	1r	r;	.	.	302.158	.
*-	*-	*-	*-	*-	*-	*-
!!!BillboardChartDate: 1972/12/02
!!!BillboardPeak: 48
!!!BillboardWeeksOnChart: 13
!!!COC: Eric Clapton
!!!ENC: Nathaniel Condit-Schultz
!!!EST: Awating manual error checking and editing.
!!!OTL: Let It Rain
!!!RDF**chordsym: original McGill chord annotation + (implied pitch class set, with bass pitch in first position)
!!!RDF**harmony: **recip + pitch class of root + harmonic quality
!!!RDF**leadinstrument: original McGill primary instrumentation annotation
!!!RDF**phrase: newline = linebreak in original McGill transcription
!!!RDF**timestamp: McGill audio timestamp in seconds
!!!RDT: 2017/01/12/
!!!SampleActualRank: 48
!!!SampleID#: 0116
!!!SampleTargetRank: 48
!!!MBID: 43acfa2d-096f-4701-adc0-824a8dbcfa26